communes/3785.svg

<?xml version="1.0" encoding="UTF-8"?>
<!DOCTYPE svg  PUBLIC '-//W3C//DTD SVG 1.1//EN'  'http://www.w3.org/Graphics/SVG/1.1/DTD/svg11.dtd'>
<svg width="438" height="480" viewBox="21 15 438 480" xmlns="http://www.w3.org/2000/svg">
<metadata>
<rdf:RDF xmlns:dc="http://purl.org/dc/elements/1.1/" xmlns:rdf="http://www.w3.org/1999/02/22-rdf-syntax-ns#">
<rdf:Description dc:date="2006-11-02" dc:format="image/svg+xml" dc:language="de" dc:title="Wappen La Punt-Chamues-ch (CH-GR)">
<dc:creator rdf:resource="http://de.wikipedia.org/wiki/Benutzer:Bernina"/>
</rdf:Description>
</rdf:RDF>
</metadata>
<title>Wappen La Punt-Chamues-ch (CH-GR)</title>
<defs>
<clipPath id="a">
<path d="m360 4140a3240 3240 0 0 0 6480 0v-3870h-6480v3870z"/>
</clipPath>
<style type="text/css"><![CDATA[
  .Rand2 { stroke: #202020; stroke-width:30; }
  .Rand3 { stroke: #202020; stroke-width:45; }
  .Rand6 { stroke: #202020; stroke-width:90; }
  .Schwarz { fill: #000000; }
  .Gold { fill: #ffef00; }
  .Silber { fill: #ffffff; }
  ]]></style>
</defs>
<g transform="scale(.066667)" fill="none" fill-rule="evenodd" stroke-miterlimit="10" stroke-width="10">
<g clip-path="url(#a)">
<path class="Schwarz" d="m-225-225v3465h7650v-3465h-7650z"/>
<path class="Gold" d="m-225 3240v4185h7650v-4185h-7650z"/>
<path class="Schwarz Rand2" d="m5850 6390a2250 2250 0 0 0-4500 0"/>
<path class="Silber Rand2" d="m7515 7425v-1530c-105 75-210 150-383 113-172-38-412-188-652-188s-480 150-720 150-480-150-720-150-480 150-720 150-480-150-720-150-480 150-720 150-480-150-720-150-480 150-720 150-480-150-720-150-480 150-652 188c-173 37-278-38-383-113v1530"/>
<path class="Rand2" d="m7515 6255c-105 75-210 150-383 113-172-38-412-188-652-196-240-7-480 128-720 128s-480-135-720-128c-240 8-480 158-720 158s-480-150-720-150-480 150-720 150-480-150-720-158c-240-7-480 128-720 128s-480-135-720-128c-240 8-480 158-652 196-173 37-278-38-383-113"/>
<path class="Rand2" d="m7515 6615c-105 75-210 150-383 113-172-38-412-188-652-188s-480 150-705 150-435-150-675-150-510 150-765 150-495-150-735-150-480 150-735 150-525-150-765-150-450 150-675 150-465-150-705-150-480 150-652 188c-173 37-278-38-383-113"/>
<path class="Rand2" d="m7515 6975c-105 75-210 150-383 113-172-38-412-188-652-180-240 7-480 172-720 164-240-7-480-187-720-194-240-8-480 157-720 164-240 8-480-142-720-142s-480 150-720 142c-240-7-480-172-720-164-240 7-480 187-720 194-240 8-480-157-720-164-240-8-480 142-652 180-173 37-278-38-383-113"/>
<path class="Silber Rand2" d="m4500 2520c8-60 15-120 0-180s-52-120-90-180c-90-120-180-240-240-450s-90-510-180-660-240-150-390-150-300 0-390 150-120 450-180 660-150 330-240 450c-38 60-75 120-90 180s-8 120 0 180c210-30 420-60 570-90s240-60 330-60 180 30 330 60 360 60 570 90z"/>
<path class="Silber Rand2" d="m4500 2520a900 240 0 0 0-1800 0 900 240 0 0 0 1800 0z"/>
<ellipse class="Silber Rand2" transform="translate(3810 690) rotate(15)" rx="120" ry="210"/>
<ellipse class="Silber Rand2" transform="translate(3390 690) rotate(-15)" rx="120" ry="210"/>
<ellipse class="Silber Rand2" cx="3600" cy="660" rx="120" ry="210"/>
<path class="Silber Rand2" d="m3570 2280c0 80 0 160-15 230s-45 130-60 180-15 90 5 135 60 95 100 95 80-50 100-95 20-85 5-135-45-110-60-180-15-150-15-230h-60z"/>
<path class="Rand2" d="m3600 1548 180-288h90l-224 360 224 360h-90l-180-288-180 288h-90l226-360-226-360h90l180 288z"/>
<path class="Rand2" d="m3150 1170c90-30 180-60 285-75s225-15 330 0 195 45 285 75"/>
<path class="Rand2" d="m2760 2190c160-40 320-80 460-100s260-20 380-20 240 0 380 20 300 60 460 100"/>
<path class="Rand3" d="m-225 3240h7650"/>
</g>
<path class="Rand6" d="m360 4140a3240 3240 0 0 0 6480 0v-3870h-6480v3870z"/>
</g>
</svg>

<?xml version="1.0" encoding="iso-8859-1"?>
<!DOCTYPE svg PUBLIC "-//W3C//DTD SVG 1.1//EN" "http://www.w3.org/Graphics/SVG/1.1/DTD/svg11.dtd">
<!-- Auto-generated by fig2svg tool
     Date: Thu Nov  2 06:28:06 2006 -->
<svg xmlns="http://www.w3.org/2000/svg"
     width="438" height="480" viewBox="21 15 438 480">
<metadata>
<rdf:RDF xmlns:rdf="http://www.w3.org/1999/02/22-rdf-syntax-ns#"
         xmlns:dc="http://purl.org/dc/elements/1.1/">
<rdf:Description
 dc:title="Wappen La Punt-Chamues-ch (CH-GR)"
 dc:date="2006-11-02"
 dc:format="image/svg+xml"
 dc:language="de">
<dc:creator rdf:resource="http://de.wikipedia.org/wiki/Benutzer:Bernina" />
</rdf:Description>
</rdf:RDF>
</metadata>
<title>
Wappen La Punt-Chamues-ch (CH-GR)
</title>
<defs>
<clipPath id="clippath">
<path d="M360,4140 A3240,3240 0.0 0 0 6840,4140 L6840,270 L360,270 L360,4140 Z" />
</clipPath>
<style type="text/css">
  <![CDATA[
  .Rand2 { stroke: #202020; stroke-width:30; }
  .Rand3 { stroke: #202020; stroke-width:45; }
  .Rand6 { stroke: #202020; stroke-width:90; }
  .Schwarz { fill: #000000; }
  .Gold { fill: #ffef00; }
  .Silber { fill: #ffffff; }
  ]]>
</style>
</defs>
<g stroke="none" stroke-miterlimit="10" stroke-width="10"
   stroke-linecap="butt" stroke-linejoin="miter"
   fill="none" fill-rule="evenodd" transform="scale(0.066667)">
<g clip-path="url(#clippath)">
<path id="feldo-1" class="Schwarz"
      d="M-225,-225 L-225,3240 L7425,3240 L7425,-225 L-225,-225 Z" />
<path id="feldu-1" class="Gold"
      d="M-225,3240 L-225,7425 L7425,7425 L7425,3240 L-225,3240 Z" />
<path id="bogen-1" class="Schwarz Rand2"
      d="M5850,6390 A2250,2250 0.0 0 0 1350,6390" />
<path id="welle-1" class="Silber Rand2"
      d="M7515,7425 L7515,5895 C7410,5970 7305,6045 7132,6008
         C6960,5970 6720,5820 6480,5820 C6240,5820 6000,5970 5760,5970
         C5520,5970 5280,5820 5040,5820 C4800,5820 4560,5970 4320,5970
         C4080,5970 3840,5820 3600,5820 C3360,5820 3120,5970 2880,5970
         C2640,5970 2400,5820 2160,5820 C1920,5820 1680,5970 1440,5970
         C1200,5970 960,5820 720,5820 C480,5820 240,5970 68,6008
         C-105,6045 -210,5970 -315,5895 L-315,7425" />
<path id="welle-linie-1" class="Rand2"
      d="M7515,6255 C7410,6330 7305,6405 7132,6368
         C6960,6330 6720,6180 6480,6172 C6240,6165 6000,6300 5760,6300
         C5520,6300 5280,6165 5040,6172 C4800,6180 4560,6330 4320,6330
         C4080,6330 3840,6180 3600,6180 C3360,6180 3120,6330 2880,6330
         C2640,6330 2400,6180 2160,6172 C1920,6165 1680,6300 1440,6300
         C1200,6300 960,6165 720,6172 C480,6180 240,6330 68,6368
         C-105,6405 -210,6330 -315,6255" />
<path id="welle-linie-2" class="Rand2"
      d="M7515,6615 C7410,6690 7305,6765 7132,6728
         C6960,6690 6720,6540 6480,6540 C6240,6540 6000,6690 5775,6690
         C5550,6690 5340,6540 5100,6540 C4860,6540 4590,6690 4335,6690
         C4080,6690 3840,6540 3600,6540 C3360,6540 3120,6690 2865,6690
         C2610,6690 2340,6540 2100,6540 C1860,6540 1650,6690 1425,6690
         C1200,6690 960,6540 720,6540 C480,6540 240,6690 68,6728
         C-105,6765 -210,6690 -315,6615" />
<path id="welle-linie-3" class="Rand2"
      d="M7515,6975 C7410,7050 7305,7125 7132,7088
         C6960,7050 6720,6900 6480,6908 C6240,6915 6000,7080 5760,7072
         C5520,7065 5280,6885 5040,6878 C4800,6870 4560,7035 4320,7042
         C4080,7050 3840,6900 3600,6900 C3360,6900 3120,7050 2880,7042
         C2640,7035 2400,6870 2160,6878 C1920,6885 1680,7065 1440,7072
         C1200,7080 960,6915 720,6908 C480,6900 240,7050 68,7088
         C-105,7125 -210,7050 -315,6975" />
<path id="glocke1-1" class="Silber Rand2"
      d="M4500,2520 C4508,2460 4515,2400 4500,2340
         C4485,2280 4448,2220 4410,2160 C4320,2040 4230,1920 4170,1710
         C4110,1500 4080,1200 3990,1050 C3900,900 3750,900 3600,900
         C3450,900 3300,900 3210,1050 C3120,1200 3090,1500 3030,1710
         C2970,1920 2880,2040 2790,2160 C2752,2220 2715,2280 2700,2340
         C2685,2400 2692,2460 2700,2520 C2910,2490 3120,2460 3270,2430
         C3420,2400 3510,2370 3600,2370 C3690,2370 3780,2400 3930,2430
         C4080,2460 4290,2490 4500,2520 Z" />
<path id="glocke2-1" class="Silber Rand2"
      d="M4500,2520 A900,240 0.0 0 0 2700,2520 A900,240 0.0 0 0 4500,2520 Z" />
<ellipse id="glocke3-1" class="Silber Rand2"
         transform="translate(3810,690) rotate(15.0)" rx="120" ry="210" />
<ellipse id="glocke3-2" class="Silber Rand2"
         transform="translate(3390,690) rotate(-15.0)" rx="120" ry="210" />
<ellipse id="glocke4-1" class="Silber Rand2" cx="3600" cy="660" rx="120"
         ry="210" />
<path id="glocke5-1" class="Silber Rand2"
      d="M3570,2280 C3570,2360 3570,2440 3555,2510
         C3540,2580 3510,2640 3495,2690 C3480,2740 3480,2780 3500,2825
         C3520,2870 3560,2920 3600,2920 C3640,2920 3680,2870 3700,2825
         C3720,2780 3720,2740 3705,2690 C3690,2640 3660,2580 3645,2510
         C3630,2440 3630,2360 3630,2280 L3570,2280 Z" />
<path id="glocke-linie-1" class="Rand2"
      d="M3600,1548 L3780,1260 L3870,1260 L3646,1620 L3870,1980 L3780,1980
         L3600,1692 L3420,1980 L3330,1980 L3556,1620 L3330,1260 L3420,1260
         L3600,1548 Z" />
<path id="glocke-linie-2" class="Rand2"
      d="M3150,1170 C3240,1140 3330,1110 3435,1095
         C3540,1080 3660,1080 3765,1095 C3870,1110 3960,1140 4050,1170" />
<path id="glocke-linie-3" class="Rand2"
      d="M2760,2190 C2920,2150 3080,2110 3220,2090
         C3360,2070 3480,2070 3600,2070 C3720,2070 3840,2070 3980,2090
         C4120,2110 4280,2150 4440,2190" />
<path id="linie-1" class="Rand3" d="M-225,3240 L7425,3240" />
</g>
<path id="clip-boundary" class="Rand6"
      d="M360,4140 A3240,3240 0.0 0 0 6840,4140 L6840,270 L360,270 L360,4140 Z" />
</g>
</svg>
